copytrade/img/icons/gift.svg

<svg width="32" height="32" viewBox="0 0 32 32" fill="none" xmlns="http://www.w3.org/2000/svg">
<path d="M24 12H8C7.44772 12 7 12.4477 7 13V15C7 15.5523 7.44772 16 8 16H24C24.5523 16 25 15.5523 25 15V13C25 12.4477 24.5523 12 24 12Z" stroke="#5636D7" stroke-width="2" stroke-linecap="round" stroke-linejoin="round"/>
<path d="M16 12V25" stroke="#5636D7" stroke-width="2" stroke-linecap="round" stroke-linejoin="round"/>
<path d="M23 16V23C23 23.5304 22.7893 24.0391 22.4142 24.4142C22.0391 24.7893 21.5304 25 21 25H11C10.4696 25 9.96086 24.7893 9.58579 24.4142C9.21071 24.0391 9 23.5304 9 23V16" stroke="#5636D7" stroke-width="2" stroke-linecap="round" stroke-linejoin="round"/>
<path d="M11.5 12C10.837 12 10.2011 11.7366 9.73223 11.2678C9.26339 10.799 9 10.1632 9 9.50022C9 8.83724 9.26339 8.20141 9.73223 7.73261C10.2011 7.26381 10.837 7.00044 11.5 7.00044C12.4647 6.98363 13.41 7.45166 14.2127 8.34348C15.0154 9.2353 15.6383 10.5095 16 12C16.3617 10.5095 16.9846 9.2353 17.7873 8.34348C18.59 7.45166 19.5353 6.98363 20.5 7.00044C21.163 7.00044 21.7989 7.26381 22.2678 7.73261C22.7366 8.20141 23 8.83724 23 9.50022C23 10.1632 22.7366 10.799 22.2678 11.2678C21.7989 11.7366 21.163 12 20.5 12" stroke="#5636D7" stroke-width="2" stroke-linecap="round" stroke-linejoin="round"/>
</svg>

<svg width="32" height="32" fill="none" xmlns="http://www.w3.org/2000/svg"><path d="M24 12H8a1 1 0 00-1 1v2a1 1 0 001 1h16a1 1 0 001-1v-2a1 1 0 00-1-1zm-8 0v13" stroke="#5636D7" stroke-width="2" stroke-linecap="round" stroke-linejoin="round"/><path d="M23 16v7a2 2 0 01-2 2H11a2 2 0 01-2-2v-7m2.5-4a2.5 2.5 0 010-5c.965-.016 1.91.452 2.713 1.343.802.892 1.425 2.166 1.787 3.657.362-1.49.985-2.765 1.787-3.657.803-.891 1.748-1.36 2.713-1.343a2.5 2.5 0 010 5" stroke="#5636D7" stroke-width="2" stroke-linecap="round" stroke-linejoin="round"/></svg>
